X:1
T:Title
%%score 1 { 2 | 3 }
L:1/8
Q:1/4=100
M:4/4
K:F
V:1 treble nm="Grand Piano, Soprano"
V:2 bass nm="Choir Pad, The Wondrous Advent"
V:3 bass 
V:1
 [FA]2 C>C [CF]2 [FA]2 | [_Ad]4 [=Ac]4 | [FA]2 [FA]>[Fc] [^FB]2 [FA]2 | [DG]4 D2 z2 | %4
w: By~R.~Frank~Lehman * * * *||||
 [GB]2 D>D [DG]2 [GB]2 | [Ge]4 [Gd]4 | [Ec]2 [EG]>[EG] [_E^F]2 [=EG]2 | [FA]6 z2 | %8
w: ||||
 [CFA]2 z2 [CFA]2 z z/ C/ | [A,F]>C [A,F]>[CFA] [FAd]2 [FAc]2 | .[CEB]2 z2 .[CEB]2 z z/ C/ | %11
w: |||
 [CE]>C [G,CE]>[CEA] [EBd]2 [EBc]2 | .[FA]2 z2 [CF]3 [CF] | [Fd]2 [^Fc]2 [GB]2 [DG]2 | %14
w: |||
 [CF]>[CF] [CE]>[CF] [FG]2 [Ec]2 | [FA]6 z2 | z2 F2 [FG]2 [Ec]2 | [FA]6 z2 | z2 F2 [FG]2 [Ec]2 | %19
w: |||||
 [CF]8 |] %20
w: |
V:2
 C2 A,>A, A,2 C2 | =B,4[K:treble] C4 | C2 C>A, D2 C2 | B,6 z2 | D2 B,>B, B,2 D2 | B,4 B,4 | %6
 G,2[K:treble] C>C C2 C2 | C6 z2 | F,2 C,2 F,2 .C,2 | F,2 C,2 F,2 C,2 | G,2 C,2 G,2 C,2 | %11
 G,2 C,2 G,2 C,2 | .C2 z2 A,3 A, | B,2 C2 D2 B,2 | A,>A, G,>A, C2 C2 | C4- C>C, D,>E, | %16
 G,2 A,2 C2 C2 | C4- C>C, D,>E, | G,2 A,2 C2 B,2 | A,8 |] %20
V:3
 F,2 F,>F, F,2 F,2 | F,4 F,4 | F,2 F,>F, D,2 D,2 | G,6 z2 | G,2 G,>G, G,2 G,2 | G,4 G,4 | %6
 C,2 C,>C, C,2 C,2 | F,6 z2 | F,,2 C,,2 F,,2 .C,,2 | F,,2 C,,2 F,,2 C,,2 | G,,2 C,,2 G,,2 C,,2 | %11
 F,,2 C,,2 G,,2 C,,2 | .F,2 z2 F,3 F, | z2 A,2 G,2 B,,2 | C,>C, C,>C, C,2 C,2 | F,6 z2 | %16
 z2 F,2 C,2 C,2 | F,6 z2 | z2 F,2 C,2 C,2 | [F,,F,]8 |] %20

